src/components/00-materials/images-raw/Town Hall.svg

<svg width="96" height="96" viewBox="0 0 96 96" fill="none" xmlns="http://www.w3.org/2000/svg">
<path d="M17.09 83.1503V77.8203H78.91V83.1503M22.42 77.8203L23.48 45.8403L22.42 77.8203ZM29.88 45.8403L30.95 77.8203L29.88 45.8403ZM65.05 77.8203L66.12 45.8403L65.05 77.8203ZM72.52 45.8403L73.58 77.8203L72.52 45.8403Z" stroke="#00008F" stroke-width="2" stroke-linecap="round" stroke-linejoin="round"/>
<path d="M48 35.1803C49.7673 35.1803 51.2 33.7476 51.2 31.9803C51.2 30.213 49.7673 28.7803 48 28.7803C46.2327 28.7803 44.8 30.213 44.8 31.9803C44.8 33.7476 46.2327 35.1803 48 35.1803Z" stroke="#00008F" stroke-width="2" stroke-linecap="round" stroke-linejoin="round"/>
<path d="M48 8.22019C48 8.22019 50.07 6.66019 54 8.22019C57.93 9.78019 58.67 7.87019 58.67 7.87019V15.0002M12.83 83.1502H83.18V88.4802H12.83V83.1502ZM17.09 40.5102V45.8402H78.91V40.5102H17.09ZM48 22.3902L17.09 40.5102H78.91L48 22.3902ZM48 22.2902V15.7102V22.2902Z" stroke="#00008F" stroke-width="2" stroke-linecap="round" stroke-linejoin="round"/>
<path d="M58.72 15.0003C58.72 15.0003 56.64 16.5503 52.72 15.0003C48.8 13.4503 48.05 15.3403 48.05 15.3403V8.28027M48 59.1503V76.6403M37.7 77.8203V59.1503H58.3V77.8203H37.7Z" stroke="#00008F" stroke-width="2" stroke-linecap="round" stroke-linejoin="round"/>
</svg>

<svg width="96" height="96" viewBox="0 0 96 96" fill="none" xmlns="http://www.w3.org/2000/svg"><path d="M17.09 83.15v-5.33h61.82v5.33m-56.49-5.33l1.06-31.98-1.06 31.98zm7.46-31.98l1.07 31.98-1.07-31.98zm35.17 31.98l1.07-31.98-1.07 31.98zm7.47-31.98l1.06 31.98-1.06-31.98zM48 35.18a3.2 3.2 0 100-6.4 3.2 3.2 0 000 6.4z" stroke="#00008F" stroke-width="2" stroke-linecap="round" stroke-linejoin="round"/><path d="M48 8.22s2.07-1.56 6 0 4.67-.35 4.67-.35V15M12.83 83.15h70.35v5.33H12.83v-5.33zm4.26-42.64v5.33h61.82v-5.33H17.09zM48 22.39L17.09 40.51h61.82L48 22.39zm0-.1v-6.58 6.58z" stroke="#00008F" stroke-width="2" stroke-linecap="round" stroke-linejoin="round"/><path d="M58.72 15s-2.08 1.55-6 0-4.67.34-4.67.34V8.28M48 59.15v17.49m-10.3 1.18V59.15h20.6v18.67H37.7z" stroke="#00008F" stroke-width="2" stroke-linecap="round" stroke-linejoin="round"/></svg>
